server/caravan/static/img/steps/1.svg

<svg id="ecmdukrTJpq1" xmlns="http://www.w3.org/2000/svg" xmlns:xlink="http://www.w3.org/1999/xlink" viewBox="0 60 106 39" shape-rendering="geometricPrecision" text-rendering="geometricPrecision"><defs><linearGradient id="ecmdukrTJpq9-stroke" x1="3" y1="82" x2="42.3319" y2="77.8906" spreadMethod="pad" gradientUnits="userSpaceOnUse" gradientTransform="translate(0 0)"><stop id="ecmdukrTJpq9-stroke-0" offset="0%" stop-color="#e41b1b"/><stop id="ecmdukrTJpq9-stroke-1" offset="100%" stop-color="#bd0000"/></linearGradient></defs><g transform="translate(-1.770631 15.38039)" clip-path="url(#ecmdukrTJpq10)"><g><path d="M17.3899,57.1658l.0014-.004.0003-.0016.0011-.0027c.3233-1.0652,1.2471-1.817,2.3565-1.9161l8.3865-.7488c.8876-.526,6.6516-3.8642,14.3828-6.5536c4.1926-1.4585,14.5374-2.8705,21.2046-1.7634c5.4473.9045,13.8263,8.5419,15.1557,9.7808c2.2302.026,18.5361.3657,24.7772,4.7294.353.2461.726.8363,1.077,1.5477.147.1056.243.2765.243.4707c0,.0129-.003.0248-.004.0374.565,1.2556,1.043,2.7046,1.239,3.3268.004.012.006.0243.009.0365.003.0112.006.0224.008.034.006.0345.01.0694.01.1046v4.8541c0,4.2799-10.9781,5.3617-13.6862,5.4313-1.5162,1.7347-3.7425,2.8337-6.2219,2.8337-2.4777,0-4.7025-1.0974-6.2186-2.8299h-30.5949v-1.163h29.7408c-.7563-1.2475-1.1922-2.7098-1.1922-4.2721c0-4.5572,3.7076-8.2649,8.2649-8.2649s8.2649,3.7077,8.2649,8.2649c0,1.5472-.4282,2.9958-1.171,4.2352c3.8198-.2257,10.4782-1.4865,11.5132-3.6537h-6.8682c-.3211,0-.5815-.2603-.5815-.5814s.2604-.5815.5815-.5815h7.0062v-3.6955c-4.257-.0442-7.4273-.5746-9.4229-1.5813-.6906-.3484-1.0339-1.0894-.8544-1.844.1811-.7612.827-1.2726,1.6074-1.2726h6.9589c-.143-.2419-.27-.4116-.374-.4839-6.2668-4.3813-24.1663-4.5206-24.3465-4.5215-.1478-.0008-.2898-.0578-.3972-.1596-.0919-.0871-9.257-8.7288-14.7137-9.6349-6.4887-1.0775-16.5536.2958-20.6321,1.7146-8.2508,2.8702-14.2187,6.4828-14.278,6.5189-.0762.0465-.1622.0749-.251.0828l-8.5188.7606c-.4353.0389-.8205.2536-1.0792.5813l4.2511,1.3223c.1658.0516.3.1746.3656.3354s.056.3425-.0263.4955l-2.4525,4.5556c-.1014.1883-.2981.3058-.512.3058h-.6502l-1.2711-1.163h1.5739l1.9534-3.6285-3.6703-1.1416-.9358,3.1197-.8438-1.2345.8344-2.782Zm79.0152,6.1199h7.5339c.306.6994.628,1.5396.912,2.3698-4.9068-.0742-7.4208-.8218-8.6751-1.4544-.3103-.1565-.2674-.4503-.2468-.5365.0211-.0889.118-.3789.476-.3789Zm-2.9733,7.812c0,3.916-3.1859,7.1019-7.1019,7.1019s-7.1019-3.1859-7.1019-7.1019c0-3.9161,3.1859-7.102,7.1019-7.102s7.1019,3.1859,7.1019,7.102Z" clip-rule="evenodd" fill="#939faa" fill-rule="evenodd"/><path d="M26.8116,67.5942c1.3209-2.8107,4.1795-4.7615,7.4851-4.7615c3.1355,0,5.8688,1.7551,7.2691,4.3344-.7621-.3416-1.738-.7871-2.1307-.9672-1.2943-1.3572-3.1193-2.2042-5.1384-2.2042-1.953,0-3.7244.7925-5.0096,2.0727l-2.4755,1.5258Z" fill="#939faa"/><path d="M86.3299,66.4313c2.573,0,4.6663,2.0933,4.6663,4.6664c0,2.573-2.0933,4.6663-4.6663,4.6663s-4.6664-2.0933-4.6664-4.6663c0-2.5731,2.0934-4.6664,4.6664-4.6664Zm3.5034,4.6664c0,1.9317-1.5716,3.5033-3.5034,3.5033-1.9317,0-3.5034-1.5716-3.5034-3.5033c0-1.9319,1.5717-3.5035,3.5034-3.5035c1.9318,0,3.5034,1.5716,3.5034,3.5035Z" clip-rule="evenodd" fill="#939faa" fill-rule="evenodd"/><path d="M43.5702,50.9622c-2.3958.8333-4.8309,1.8136-7.2376,2.9132-.3543.162-.5951.4891-.6442.8749-.049.3851.1018.7611.4035,1.0059l.4635.3761c1.6891,1.3706,3.8167,2.1634,5.9908,2.2324l33.8795,1.075c.0062.0002.0124.0004.0186.0004.2339,0,.4459-.1406.5364-.3576.093-.2227.0387-.4798-.1365-.6458-3.5133-3.332-10.0467-8.5061-13.6453-9.1037-1.4363-.2386-3.1394-.3595-5.062-.3595-3.0575,0-6.3202.3082-9.1036.7486-.0008.0001-.0017.0002-.0026.0002l-.006.0001c-.0033,0-.0065,0-.0098.0005-.0046.0006-.0089.0019-.0132.0031-.0013.0004-.0027.0008-.004.0012-.0023.0006-.0046.0012-.007.0016-2.2417.3564-4.1692.7981-5.4205,1.2334Zm14.5666-.8257c1.859,0,3.498.1156,4.8716.3437c2.8241.469,8.2615,4.5094,11.8897,7.7476l-24.2019-.768-.9438-6.6746c2.5967-.3853,5.5751-.6487,8.3844-.6487ZM42.5831,57.2023c-1.9216-.0609-3.802-.7616-5.2949-1.973l-.4035-.3274c2.3513-1.072,4.7288-2.0277,7.0676-2.8413c1.0958-.3813,2.733-.7676,4.6513-1.0932l.9128,6.455-6.9333-.2201ZM57.007,61.7637c0,.3212-.2603.5815-.5814.5815h-3.5378c-.3211,0-.5814-.2603-.5814-.5815s.2603-.5814.5814-.5814h3.5378c.3211,0,.5814.2603.5814.5814Z" clip-rule="evenodd" fill="#939faa" fill-rule="evenodd"/><path d="M75.2992,72.5341c.3212,0,.5815-.2603.5815-.5815s-.2603-.5814-.5815-.5814h-28.8007c.3334.029,1,.3023,1,1.1629h27.8007Z" fill="#939faa"/><path d="M29.4502,69.3173v0l.0068.0023c2.1283.7033,4.3719,1.0603,6.6543,1.0603c1.1785,0,2.1386.9601,2.1387,2.1386v6.5928c0,1.1786-.9601,2.1387-2.1387,2.1387C18.2677,81.25,3.75,66.7323,3.75,48.8887c0-1.1786.96012-2.1387,2.13871-2.1387h6.61119c1.1786,0,2.1387.9601,2.1387,2.1388v0c0,2.2818.3575,4.5224,1.0623,6.6592.2457.7887.0382,1.6188-.5317,2.188l-.0375.0375-.0319.0423-2.9658,3.9424-.2866.3811.2234.4213c2.5423,4.7922,5.5422,7.7903,10.367,10.3658l.4226.2256.3824-.2887l4.0479-3.0557.0456-.0344.0398-.041c.1831-.188.5032-.3665.9066-.4569.3982-.0892.8156-.0781,1.1675.042Z" fill="none" stroke="url(#ecmdukrTJpq9-stroke)" stroke-width="1.5"/></g><clipPath id="ecmdukrTJpq10"><rect width="125" height="125" rx="0" ry="0" transform="matrix(-1 0 0 1 125.5 0)" fill="#fff"/></clipPath></g></svg>

<svg xmlns="http://www.w3.org/2000/svg" width="126" height="50" viewBox="0 60 125 1" fill="none">
<g clip-path="url(#clip0_1505_60971)">
<path fill-rule="evenodd" clip-rule="evenodd" d="M17.3899 57.1658L17.3913 57.1618L17.3916 57.1602L17.3927 57.1575C17.716 56.0923 18.6398 55.3405 19.7492 55.2414L28.1357 54.4926C29.0233 53.9666 34.7873 50.6284 42.5185 47.939C46.7111 46.4805 57.0559 45.0685 63.7231 46.1756C69.1704 47.0801 77.5494 54.7175 78.8788 55.9564C81.109 55.9824 97.4149 56.3221 103.656 60.6858C104.009 60.9319 104.382 61.5221 104.733 62.2335C104.88 62.3391 104.976 62.51 104.976 62.7042C104.976 62.7171 104.973 62.729 104.972 62.7416C105.537 63.9972 106.015 65.4462 106.211 66.0684C106.215 66.0804 106.217 66.0927 106.22 66.1049C106.223 66.1161 106.226 66.1273 106.228 66.1389C106.234 66.1734 106.238 66.2083 106.238 66.2435V71.0976C106.238 75.3775 95.2599 76.4593 92.5518 76.5289C91.0356 78.2636 88.8093 79.3626 86.3299 79.3626C83.8522 79.3626 81.6274 78.2652 80.1113 76.5327H49.5164V75.3697H79.2572C78.5009 74.1222 78.065 72.6599 78.065 71.0976C78.065 66.5404 81.7726 62.8327 86.3299 62.8327C90.8872 62.8327 94.5948 66.5404 94.5948 71.0976C94.5948 72.6448 94.1666 74.0934 93.4238 75.3328C97.2436 75.1071 103.902 73.8463 104.937 71.6791H98.0688C97.7477 71.6791 97.4873 71.4188 97.4873 71.0977C97.4873 70.7766 97.7477 70.5162 98.0688 70.5162H105.075V66.8207C100.818 66.7765 97.6477 66.2461 95.6521 65.2394C94.9615 64.891 94.6182 64.15 94.7977 63.3954C94.9788 62.6342 95.6247 62.1228 96.4051 62.1228H103.364C103.221 61.8809 103.094 61.7112 102.99 61.6389C96.7232 57.2576 78.8237 57.1183 78.6435 57.1174C78.4957 57.1166 78.3537 57.0596 78.2463 56.9578C78.1544 56.8707 68.9893 48.229 63.5326 47.3229C57.0439 46.2454 46.979 47.6187 42.9005 49.0375C34.6497 51.9077 28.6818 55.5203 28.6225 55.5564C28.5463 55.6029 28.4603 55.6313 28.3715 55.6392L19.8527 56.3998C19.4174 56.4387 19.0322 56.6534 18.7735 56.9811L23.0246 58.3034C23.1904 58.355 23.3246 58.478 23.3902 58.6388C23.4559 58.7996 23.4462 58.9813 23.3639 59.1343L20.9114 63.6899C20.81 63.8782 20.6133 63.9957 20.3994 63.9957H19.7492L18.4781 62.8327H20.052L22.0054 59.2042L18.3351 58.0626L17.3993 61.1823L16.5555 59.9478L17.3899 57.1658ZM96.4051 63.2857H103.939C104.245 63.9851 104.567 64.8253 104.851 65.6555C99.9442 65.5813 97.4302 64.8337 96.1759 64.2011C95.8656 64.0446 95.9085 63.7508 95.9291 63.6646C95.9502 63.5757 96.0471 63.2857 96.4051 63.2857ZM93.4318 71.0977C93.4318 75.0137 90.2459 78.1996 86.3299 78.1996C82.4139 78.1996 79.228 75.0137 79.228 71.0977C79.228 67.1816 82.4139 63.9957 86.3299 63.9957C90.2459 63.9957 93.4318 67.1816 93.4318 71.0977Z" fill="#939FAA"/>
<path d="M26.8116 67.5942C28.1325 64.7835 30.9911 62.8327 34.2967 62.8327C37.4322 62.8327 40.1655 64.5878 41.5658 67.1671C40.8037 66.8255 39.8278 66.38 39.4351 66.1999C38.1408 64.8427 36.3158 63.9957 34.2967 63.9957C32.3437 63.9957 30.5723 64.7882 29.2871 66.0684L26.8116 67.5942Z" fill="#939FAA"/>
<path fill-rule="evenodd" clip-rule="evenodd" d="M86.3299 66.4313C88.9029 66.4313 90.9962 68.5246 90.9962 71.0977C90.9962 73.6707 88.9029 75.764 86.3299 75.764C83.7569 75.764 81.6635 73.6707 81.6635 71.0977C81.6635 68.5246 83.7569 66.4313 86.3299 66.4313ZM89.8333 71.0977C89.8333 73.0294 88.2617 74.601 86.3299 74.601C84.3982 74.601 82.8265 73.0294 82.8265 71.0977C82.8265 69.1658 84.3982 67.5942 86.3299 67.5942C88.2617 67.5942 89.8333 69.1658 89.8333 71.0977Z" fill="#939FAA"/>
<path fill-rule="evenodd" clip-rule="evenodd" d="M43.5702 50.9622C41.1744 51.7955 38.7393 52.7758 36.3326 53.8754C35.9783 54.0374 35.7375 54.3645 35.6884 54.7503C35.6394 55.1354 35.7902 55.5114 36.0919 55.7562L36.5554 56.1323C38.2445 57.5029 40.3721 58.2957 42.5462 58.3647L76.4257 59.4397C76.4319 59.4399 76.4381 59.4401 76.4443 59.4401C76.6782 59.4401 76.8902 59.2995 76.9807 59.0825C77.0737 58.8598 77.0194 58.6027 76.8442 58.4367C73.3309 55.1047 66.7975 49.9306 63.1989 49.333C61.7626 49.0944 60.0595 48.9735 58.1369 48.9735C55.0794 48.9735 51.8167 49.2817 49.0333 49.7221C49.0325 49.7222 49.0316 49.7223 49.0307 49.7223L49.0247 49.7224C49.0214 49.7224 49.0182 49.7224 49.0149 49.7229C49.0103 49.7235 49.006 49.7248 49.0017 49.726C49.0004 49.7264 48.999 49.7268 48.9977 49.7272C48.9954 49.7278 48.9931 49.7284 48.9907 49.7288C46.749 50.0852 44.8215 50.5269 43.5702 50.9622ZM58.1368 50.1365C59.9958 50.1365 61.6348 50.2521 63.0084 50.4802C65.8325 50.9492 71.2699 54.9896 74.8981 58.2278L50.6962 57.4598L49.7524 50.7852C52.3491 50.3999 55.3275 50.1365 58.1368 50.1365ZM42.5831 57.2023C40.6615 57.1414 38.7811 56.4407 37.2882 55.2293L36.8847 54.9019C39.236 53.8299 41.6135 52.8742 43.9523 52.0606C45.0481 51.6793 46.6853 51.293 48.6036 50.9674L49.5164 57.4224L42.5831 57.2023ZM57.007 61.7637C57.007 62.0849 56.7467 62.3452 56.4256 62.3452H52.8878C52.5667 62.3452 52.3064 62.0849 52.3064 61.7637C52.3064 61.4426 52.5667 61.1823 52.8878 61.1823H56.4256C56.7467 61.1823 57.007 61.4426 57.007 61.7637Z" fill="#939FAA"/>
<path d="M75.2992 72.5341C75.6204 72.5341 75.8807 72.2738 75.8807 71.9526C75.8807 71.6315 75.6204 71.3712 75.2992 71.3712H46.4985C46.8319 71.4002 47.4985 71.6735 47.4985 72.5341H75.2992Z" fill="#939FAA"/>
<path d="M29.4502 69.3173L29.4502 69.3173L29.457 69.3196C31.5853 70.0229 33.8289 70.3799 36.1113 70.3799C37.2898 70.3799 38.2499 71.34 38.25 72.5185V79.1113C38.25 80.2899 37.2899 81.25 36.1113 81.25C18.2677 81.25 3.75 66.7323 3.75 48.8887C3.75 47.7101 4.71012 46.75 5.88871 46.75H12.4999C13.6785 46.75 14.6386 47.7101 14.6386 48.8888V48.8888C14.6386 51.1706 14.9961 53.4112 15.7009 55.548C15.9466 56.3367 15.7391 57.1668 15.1692 57.736L15.1317 57.7735L15.0998 57.8158L12.134 61.7582L11.8474 62.1393L12.0708 62.5606C14.6131 67.3528 17.613 70.3509 22.4378 72.9264L22.8604 73.152L23.2428 72.8633L27.2907 69.8076L27.3363 69.7732L27.3761 69.7322C27.5592 69.5442 27.8793 69.3657 28.2827 69.2753C28.6809 69.1861 29.0983 69.1972 29.4502 69.3173Z" stroke="url(#paint0_linear_1505_60971)" stroke-width="1.5"/>
</g>
<defs>
<linearGradient id="paint0_linear_1505_60971" x1="3" y1="82" x2="42.3319" y2="77.8906" gradientUnits="userSpaceOnUse">
<stop stop-color="#E41B1B"/>
<stop offset="1" stop-color="#BD0000"/>
</linearGradient>
<clipPath id="clip0_1505_60971">
<rect width="125" height="125" fill="white" transform="matrix(-1 0 0 1 125.5 0)"/>
</clipPath>
</defs>
</svg>
